X:1
T:Title
%%score { ( 1 3 5 ) | ( 2 4 6 ) }
L:1/8
M:4/4
K:C
V:1 treble nm="Grand Piano"
V:3 treble 
V:5 treble 
V:2 bass 
V:4 bass 
V:6 bass 
V:1
 z4 z[Q:1/4=72] GAE | G4 .A2 z2 | B6[K:bass][K:treble] z2 | z G, z E [DF]G[DFB][FA] | %4
 [EG-]2 G4 z2 | G4 .A2 z2 |[M:17/16] c-[^Gc-][Ac-][Fc-][Dc]3/2cBA |[M:4/4] d4 z4 | %8
[M:7/8] d-d-d- d- d3 |[M:1/4] G2 |[M:4/4] e4 z4 | B6 z2 | z [DB][DB][E_B^c] [F=Be][FBd][DFA][DGB] | %13
 G6 z2 | z [G,E][G,E][Fc] [Gc][CAc][D_Bd][EBc] |[M:17/16] [Ac]-[FA-c-][CA-c-][DA-c-][_EAc]3/2cBc | %16
[M:5/4] g4 z2 z4 |[M:11/16] c/-c/-c/-c/-c/-c/-c/-c-<c |] %18
V:2
 z4 z G,A,E, | z4 z2 .C2 | [G,,G,][F,,F,][D,,D,]B,,, G,,B,B,C | D4 z4 | C,^C,D,G, =C,G,A,E, | %5
 G,[C,C][C,C][C,C] [C,C]2 z ^G |[M:17/16] z B,C z ^F,3/2 z/ z/ z/ z/ z | %7
[M:4/4] z [D,B,][D,B,][D,C] [D,D]2 [C,C]2 |[M:7/8] [B,,B,][B,,B,][A,,A,] [A,,A,] [G,,G,]3 | %9
[M:1/4] z2 |[M:4/4] z [C,C][C,C][C,C] [C,G,][C,G,][E,C][_E,C] | %11
 [D,G,][G,,G,][B,,G,][D,G,] G,2[K:treble] G2 | f4[K:bass] z4 | E,_E,D,G,, C,2[K:treble] G2 | %14
 c4[K:bass] z4 |[M:17/16] F,F,F,F,^F,3/2 z/ z/ z/ z/ z |[M:5/4][K:treble] e4 z2 z4 | %17
[M:11/16][K:bass] z B,A,^G,=G,3/2 |] %18
V:3
 x8 | z EE[EG] E-[EG]Ec | z2 [DF]2[K:bass][K:treble] z4 | F4 z4 | C_B, [=B,F]2 [CE]GAE | %5
 z EE[EG] E-[EG][Gc]c |[M:17/16] .[CA]3/2 z/ z/ z/ z/ z/ z/ z/ z/ z/ z/ z/ z/ z | %7
[M:4/4] z GG[^Fe] [FB]2 [DFA]2 |[M:7/8] [DG][DG][D^Fc] [DFc] [D=FB]3 |[M:1/4] x2 | %10
[M:4/4] z GG[EB] [Ed][Ec]G[^FA] | FFFF F2 z2 | x8 | C[A,C][B,D][DF] [CE]2 z2 | x8 | %15
[M:17/16] .F3/2 z/ z/ z/ z/ z/ z/ z/ z/ z/ z/ z/ z/ z |[M:5/4] z cce c3 d3 | %17
[M:11/16] [CE]GFCE3/2 |] %18
V:4
 x8 | G,[C,C][C,C][C,C] [C,C]2 [C,G,]-[C,G,E] | x8 | z G,, z ^C z E z B, | x8 | z4 z2 [E,C]2 | %6
[M:17/16] z/ z/ z/ z/ z A,/-A,-<A, z/ z/ z/ z/ z |[M:4/4] x8 |[M:7/8] x7 |[M:1/4] x2 |[M:4/4] x8 | %11
 x6[K:treble] x2 | z G,G,G,[K:bass] G,G,G,F, | x6[K:treble] x2 | %14
 z[K:bass] C,C,[C,A,] [C,_B,]C,C,C, |[M:17/16] x17/2 | %16
[M:5/4][K:treble] z [G,E][G,E][G,CG] [A,D^F]3 [G,B,=F]3 | %17
[M:11/16][K:bass] C,/-C,/-C,/-C,/-C,/-C,/-C,/-C,-<C, |] %18
V:5
 x8 | x8 | [DF]2 z[K:bass] B,,[K:treble] [DF]DDE | z2 G,2 z4 | x8 | x8 |[M:17/16] x17/2 | %7
[M:4/4] x8 |[M:7/8] x7 |[M:1/4] x2 |[M:4/4] x8 | x8 | x8 | x8 | x8 |[M:17/16] x17/2 |[M:5/4] x10 | %17
[M:11/16] x11/2 |] %18
V:6
 x8 | x8 | x8 | z2 G,,2 [G,,G,]2 G,,2 | x8 | x8 | %6
[M:17/16] F,/-F,/-F,/-F,/-F,-<F, z/ z/ z/ z/ z/ z/ z/ z |[M:4/4] x8 |[M:7/8] x7 |[M:1/4] x2 | %10
[M:4/4] x8 | x6[K:treble] x2 | x4[K:bass] x4 | x6[K:treble] x2 | x[K:bass] x7 |[M:17/16] x17/2 | %16
[M:5/4][K:treble] x10 |[M:11/16][K:bass] x11/2 |] %18

